file/ci.svg

<svg clip-rule="evenodd" fill-rule="evenodd" stroke-linejoin="round" stroke-miterlimit="1.41421" viewBox="0 0 560 400" xmlns="http://www.w3.org/2000/svg"><g transform="matrix(1.11111 0 0 1.11111 80 116.667)"><path d="m167.299 91.547v-.057c0-5.246 3.942-9.835 9.729-9.835 5.793 0 9.678 4.534 9.678 9.778.028.031.028.031 0 .057 0 5.246-3.943 9.836-9.73 9.836-5.79 0-9.677-4.536-9.677-9.779zm-16.768 9.454h-2.175v-17.036h-6.386v-1.986h14.95v1.986h-6.389zm-94.177 0h-2.18v-17.036h-6.385v-1.986h14.95v1.986h-6.385zm173.374 0h-2.313l-2.227-5.027h-10.351l-2.263 5.027h-2.193l8.667-19.155h2.007zm-87.348 0h-2.309l-2.228-5.027h-10.353l-2.257 5.027h-2.199l8.666-19.155h2.015zm-58.121-19.022h8.179c2.336 0 4.212.708 5.405 1.904.923.924 1.471 2.252 1.471 3.747v.051c0 3.156-2.175 5.003-5.164 5.548l5.843 7.771h-2.641l-5.51-7.394h-5.436v7.394h-2.147zm-63.589 0h2.145v19.02h-2.145zm140.106 0h2.147v19.02h-2.147zm85.197 19.02h-12.851v-19.02h2.147v17.042h10.704zm-165.681 0h-13.885v-19.02h13.748v1.958h-11.603v6.494h10.381v1.954h-10.381v6.661h11.74zm112.691 0h-2.09v-19.02h2.009l11.987 15.246v-15.246h2.09v19.02h-1.712l-12.284-15.599zm-162.857 0h-2.092v-19.02h2.013l11.984 15.246v-15.246h2.09v19.02h-1.707l-12.288-15.599zm75.513 0h-2.09v-19.02h2.01l11.984 15.246v-15.246h2.095v19.02h-1.714l-12.285-15.599zm78.835-9.452v-.057c0-4.323-3.147-7.853-7.498-7.853-4.348 0-7.448 3.479-7.448 7.796v.057c0 4.321 3.152 7.855 7.5 7.855 4.351.001 7.446-3.482 7.446-7.798zm39.868 2.497-4.318-9.7-4.349 9.7zm-87.34 0-4.325-9.7-4.345 9.7zm-44.751-2.361c2.852 0 4.888-1.471 4.888-3.918v-.05c0-2.341-1.792-3.752-4.862-3.752h-5.871v7.72zm-74.251-27.18v-.056c0-5.553 4.188-10.101 10.186-10.101 3.682 0 5.885 1.229 7.699 3.014l-2.732 3.152c-1.508-1.363-3.041-2.202-4.997-2.202-3.294 0-5.663 2.733-5.663 6.082v.056c0 3.349 2.318 6.14 5.663 6.14 2.235 0 3.604-.896 5.136-2.286l2.732 2.762c-2.006 2.148-4.24 3.489-8.007 3.489-5.749-.001-10.017-4.44-10.017-10.05zm184.298 0v-.056c0-5.553 4.383-10.101 10.412-10.101 6.025 0 10.351 4.494 10.351 10.045v.056c0 5.551-4.386 10.105-10.408 10.105-6.025 0-10.355-4.495-10.355-10.049zm-165.284 0v-.056c0-5.553 4.384-10.101 10.409-10.101 6.029 0 10.354 4.494 10.354 10.045v.056c0 5.551-4.38 10.105-10.406 10.105-6.029 0-10.357-4.495-10.357-10.049zm44.413 6.869 2.538-3.046c1.759 1.454 3.603 2.376 5.833 2.376 1.756 0 2.817-.704 2.817-1.846v-.055c0-1.088-.665-1.646-3.933-2.483-3.937-1.003-6.474-2.096-6.474-5.975v-.052c0-3.545 2.847-5.888 6.838-5.888 2.844 0 5.271.892 7.251 2.483l-2.229 3.237c-1.732-1.199-3.429-1.925-5.077-1.925-1.646 0-2.512.753-2.512 1.702v.054c0 1.285.835 1.703 4.212 2.566 3.959 1.033 6.191 2.461 6.191 5.862v.057c0 3.878-2.959 6.055-7.169 6.055-2.956.001-5.942-1.034-8.286-3.122zm68.082 2.986h-3.795l-7.896-19.676h4.741l5.106 13.761 5.108-13.761h4.634zm45.028-19.676h4.291v19.535h-4.291zm-74.584 0h8.925c2.485 0 4.409.697 5.693 1.984 1.09 1.083 1.675 2.623 1.675 4.461v.058c0 3.153-1.702 5.133-4.183 6.054l4.77 6.978h-5.023l-4.183-6.253h-3.38v6.253h-4.294zm110.892 19.534h-4.24v-19.534h3.96l9.156 12.026v-12.026h4.239v19.534h-3.651l-9.464-12.419zm-165.976 0h-4.24v-19.534h3.964l9.152 12.026v-12.026h4.24v19.534h-3.655l-9.461-12.419zm50.654 0h-14.876v-19.534h14.732v3.825h-10.462v3.959h9.207v3.825h-9.207v4.105h10.606zm69.856 0h-4.295v-15.57h-5.944v-3.964h16.187v3.964h-5.948zm-9.066 0h-4.494l-1.788-4.383h-8.262l-1.785 4.383h-4.378l8.368-19.676h3.964zm42.255-9.713v-.056c0-3.347-2.455-6.137-5.916-6.137-3.462 0-5.861 2.733-5.861 6.082v.056c0 3.349 2.457 6.14 5.919 6.14 3.46-.001 5.858-2.734 5.858-6.085zm-165.285 0v-.056c0-3.347-2.453-6.137-5.912-6.137-3.461 0-5.868 2.733-5.868 6.082v.056c0 3.349 2.458 6.14 5.92 6.14 3.461-.001 5.86-2.734 5.86-6.085zm115.216 1.539-2.596-6.339-2.598 6.339zm-39.897-1.871c2.09 0 3.292-1.118 3.292-2.76v-.06c0-1.838-1.287-2.795-3.38-2.795h-4.267v5.615z" fill="#6b757c" fill-rule="nonzero"/><path d="m271.83 93.478c-7.42-7.41-12.037-17.733-12.027-29.059-.01-11.325 4.607-21.649 12.027-29.067 7.416-7.425 17.738-12.039 29.068-12.033 11.324-.006 21.65 4.608 29.062 12.033 7.423 7.418 12.04 17.742 12.04 29.067s-4.617 21.648-12.039 29.059c-7.414 7.43-17.738 12.046-29.062 12.039h-.016c-11.32 0-21.645-4.61-29.053-12.039m11.211-46.913c-4.584 4.591-7.393 10.852-7.396 17.854.004 6.998 2.812 13.264 7.396 17.855 4.597 4.574 10.856 7.387 17.857 7.393 6.999-.006 13.259-2.818 17.855-7.393 4.577-4.592 7.391-10.857 7.393-17.855-.002-7.002-2.815-13.263-7.393-17.854-4.597-4.586-10.856-7.395-17.855-7.395-7.001 0-13.26 2.809-17.857 7.395" fill="#1096d4" fill-rule="nonzero"/><path d="m270.463 110.832h60.873v15.849h-60.873z" fill="#4baa47"/></g></svg>

<?xml version="1.0" encoding="UTF-8" standalone="no"?>
<!DOCTYPE svg PUBLIC "-//W3C//DTD SVG 1.1//EN" "http://www.w3.org/Graphics/SVG/1.1/DTD/svg11.dtd">
<svg width="100%" height="100%" viewBox="0 0 560 400" version="1.1" xmlns="http://www.w3.org/2000/svg" xmlns:xlink="http://www.w3.org/1999/xlink" xml:space="preserve" xmlns:serif="http://www.serif.com/" style="fill-rule:evenodd;clip-rule:evenodd;stroke-linejoin:round;stroke-miterlimit:1.41421;">
    <g transform="matrix(1.11111,0,0,1.11111,80,116.667)">
        <path d="M167.299,91.547L167.299,91.49C167.299,86.244 171.241,81.655 177.028,81.655C182.821,81.655 186.706,86.189 186.706,91.433C186.734,91.464 186.734,91.464 186.706,91.49C186.706,96.736 182.763,101.326 176.976,101.326C171.186,101.326 167.299,96.79 167.299,91.547ZM150.531,101.001L148.356,101.001L148.356,83.965L141.97,83.965L141.97,81.979L156.92,81.979L156.92,83.965L150.531,83.965L150.531,101.001ZM56.354,101.001L54.174,101.001L54.174,83.965L47.789,83.965L47.789,81.979L62.739,81.979L62.739,83.965L56.354,83.965L56.354,101.001ZM229.728,101.001L227.415,101.001L225.188,95.974L214.837,95.974L212.574,101.001L210.381,101.001L219.048,81.846L221.055,81.846L229.728,101.001ZM142.38,101.001L140.071,101.001L137.843,95.974L127.49,95.974L125.233,101.001L123.034,101.001L131.7,81.846L133.715,81.846L142.38,101.001ZM84.259,81.979L92.438,81.979C94.774,81.979 96.65,82.687 97.843,83.883C98.766,84.807 99.314,86.135 99.314,87.63L99.314,87.681C99.314,90.837 97.139,92.684 94.15,93.229L99.993,101L97.352,101L91.842,93.606L86.406,93.606L86.406,101L84.259,101L84.259,81.979ZM20.67,81.979L22.815,81.979L22.815,100.999L20.67,100.999L20.67,81.979ZM160.776,81.979L162.923,81.979L162.923,100.999L160.776,100.999L160.776,81.979ZM245.973,100.999L233.122,100.999L233.122,81.979L235.269,81.979L235.269,99.021L245.973,99.021L245.973,100.999ZM80.292,100.999L66.407,100.999L66.407,81.979L80.155,81.979L80.155,83.937L68.552,83.937L68.552,90.431L78.933,90.431L78.933,92.385L68.552,92.385L68.552,99.046L80.292,99.046L80.292,100.999ZM192.983,100.999L190.893,100.999L190.893,81.979L192.902,81.979L204.889,97.225L204.889,81.979L206.979,81.979L206.979,100.999L205.267,100.999L192.983,85.4L192.983,100.999ZM30.126,100.999L28.034,100.999L28.034,81.979L30.047,81.979L42.031,97.225L42.031,81.979L44.121,81.979L44.121,100.999L42.414,100.999L30.126,85.4L30.126,100.999ZM105.639,100.999L103.549,100.999L103.549,81.979L105.559,81.979L117.543,97.225L117.543,81.979L119.638,81.979L119.638,100.999L117.924,100.999L105.639,85.4L105.639,100.999ZM184.474,91.547L184.474,91.49C184.474,87.167 181.327,83.637 176.976,83.637C172.628,83.637 169.528,87.116 169.528,91.433L169.528,91.49C169.528,95.811 172.68,99.345 177.028,99.345C181.379,99.346 184.474,95.863 184.474,91.547ZM224.342,94.044L220.024,84.344L215.675,94.044L224.342,94.044ZM137.002,94.044L132.677,84.344L128.332,94.044L137.002,94.044ZM92.251,91.683C95.103,91.683 97.139,90.212 97.139,87.765L97.139,87.715C97.139,85.374 95.347,83.963 92.277,83.963L86.406,83.963L86.406,91.683L92.251,91.683ZM18,64.503L18,64.447C18,58.894 22.188,54.346 28.186,54.346C31.868,54.346 34.071,55.575 35.885,57.36L33.153,60.512C31.645,59.149 30.112,58.31 28.156,58.31C24.862,58.31 22.493,61.043 22.493,64.392L22.493,64.448C22.493,67.797 24.811,70.588 28.156,70.588C30.391,70.588 31.76,69.692 33.292,68.302L36.024,71.064C34.018,73.212 31.784,74.553 28.017,74.553C22.268,74.552 18,70.113 18,64.503ZM202.298,64.503L202.298,64.447C202.298,58.894 206.681,54.346 212.71,54.346C218.735,54.346 223.061,58.84 223.061,64.391L223.061,64.447C223.061,69.998 218.675,74.552 212.653,74.552C206.628,74.552 202.298,70.057 202.298,64.503ZM37.014,64.503L37.014,64.447C37.014,58.894 41.398,54.346 47.423,54.346C53.452,54.346 57.777,58.84 57.777,64.391L57.777,64.447C57.777,69.998 53.397,74.552 47.371,74.552C41.342,74.552 37.014,70.057 37.014,64.503ZM81.427,71.372L83.965,68.326C85.724,69.78 87.568,70.702 89.798,70.702C91.554,70.702 92.615,69.998 92.615,68.856L92.615,68.801C92.615,67.713 91.95,67.155 88.682,66.318C84.745,65.315 82.208,64.222 82.208,60.343L82.208,60.291C82.208,56.746 85.055,54.403 89.046,54.403C91.89,54.403 94.317,55.295 96.297,56.886L94.068,60.123C92.336,58.924 90.639,58.198 88.991,58.198C87.345,58.198 86.479,58.951 86.479,59.9L86.479,59.954C86.479,61.239 87.314,61.657 90.691,62.52C94.65,63.553 96.882,64.981 96.882,68.382L96.882,68.439C96.882,72.317 93.923,74.494 89.713,74.494C86.757,74.495 83.771,73.46 81.427,71.372ZM149.509,74.358L145.714,74.358L137.818,54.682L142.559,54.682L147.665,68.443L152.773,54.682L157.407,54.682L149.509,74.358ZM194.537,54.682L198.828,54.682L198.828,74.217L194.537,74.217L194.537,54.682ZM119.953,54.682L128.878,54.682C131.363,54.682 133.287,55.379 134.571,56.666C135.661,57.749 136.246,59.289 136.246,61.127L136.246,61.185C136.246,64.338 134.544,66.318 132.063,67.239L136.833,74.217L131.81,74.217L127.627,67.964L124.247,67.964L124.247,74.217L119.953,74.217L119.953,54.682ZM230.845,74.216L226.605,74.216L226.605,54.682L230.565,54.682L239.721,66.708L239.721,54.682L243.96,54.682L243.96,74.216L240.309,74.216L230.845,61.797L230.845,74.216ZM64.869,74.216L60.629,74.216L60.629,54.682L64.593,54.682L73.745,66.708L73.745,54.682L77.985,54.682L77.985,74.216L74.33,74.216L64.869,61.797L64.869,74.216ZM115.523,74.216L100.647,74.216L100.647,54.682L115.379,54.682L115.379,58.507L104.917,58.507L104.917,62.466L114.124,62.466L114.124,66.291L104.917,66.291L104.917,70.396L115.523,70.396L115.523,74.216ZM185.379,74.216L181.084,74.216L181.084,58.646L175.14,58.646L175.14,54.682L191.327,54.682L191.327,58.646L185.379,58.646L185.379,74.216ZM176.313,74.216L171.819,74.216L170.031,69.833L161.769,69.833L159.984,74.216L155.606,74.216L163.974,54.54L167.938,54.54L176.313,74.216ZM218.568,64.503L218.568,64.447C218.568,61.1 216.113,58.31 212.652,58.31C209.19,58.31 206.791,61.043 206.791,64.392L206.791,64.448C206.791,67.797 209.248,70.588 212.71,70.588C216.17,70.587 218.568,67.854 218.568,64.503ZM53.283,64.503L53.283,64.447C53.283,61.1 50.83,58.31 47.371,58.31C43.91,58.31 41.503,61.043 41.503,64.392L41.503,64.448C41.503,67.797 43.961,70.588 47.423,70.588C50.884,70.587 53.283,67.854 53.283,64.503ZM168.499,66.042L165.903,59.703L163.305,66.042L168.499,66.042ZM128.602,64.171C130.692,64.171 131.894,63.053 131.894,61.411L131.894,61.351C131.894,59.513 130.607,58.556 128.514,58.556L124.247,58.556L124.247,64.171L128.602,64.171Z" style="fill:rgb(107,117,124);fill-rule:nonzero;"/>
        <path d="M271.83,93.478C264.41,86.068 259.793,75.745 259.803,64.419C259.793,53.094 264.41,42.77 271.83,35.352C279.246,27.927 289.568,23.313 300.898,23.319C312.222,23.313 322.548,27.927 329.96,35.352C337.383,42.77 342,53.094 342,64.419C342,75.744 337.383,86.067 329.961,93.478C322.547,100.908 312.223,105.524 300.899,105.517L300.883,105.517C289.563,105.517 279.238,100.907 271.83,93.478M283.041,46.565C278.457,51.156 275.648,57.417 275.645,64.419C275.649,71.417 278.457,77.683 283.041,82.274C287.638,86.848 293.897,89.661 300.898,89.667C307.897,89.661 314.157,86.849 318.753,82.274C323.33,77.682 326.144,71.417 326.146,64.419C326.144,57.417 323.331,51.156 318.753,46.565C314.156,41.979 307.897,39.17 300.898,39.17C293.897,39.17 287.638,41.979 283.041,46.565" style="fill:rgb(16,150,212);fill-rule:nonzero;"/>
        <rect x="270.463" y="110.832" width="60.873" height="15.849" style="fill:rgb(75,170,71);"/>
    </g>
</svg>
